X:487
T: D'n E'm Steffen (195), S. 424
N: T0375
O: Luxemburg
S: Singendes Volk, Esch-Alzette, 1937 posth.]
N: Junglinster, hhh Vater des Verfassers, 1890
R: Hochzeits-, Ehestandslied]
M: 2/4
L: 1/8
K: F
C2 | F2FF | A2FA | c2c2 | c2
f2 | c2AA | BGGG | A2F2 | F2
AA | GGGG | G2
BB | AFFF | F2
f2 | c2AA | BGGG | A2F2 | F2

